images/customer/logo customer 5.svg

<svg width="111" height="89" viewBox="0 0 111 89" fill="none" xmlns="http://www.w3.org/2000/svg">
<g clip-path="url(#clip0)">
<path d="M8.71317 73.738C9.1421 74.271 9.37059 74.9385 9.35861 75.6237C9.3805 76.0706 9.30197 76.5168 9.12884 76.9291C8.95571 77.3414 8.69242 77.7094 8.35846 78.0057C7.5252 78.6375 6.49289 78.9464 5.45106 78.8756H0.339844V66.9248H5.34639C6.33465 66.8588 7.31506 67.1394 8.12006 67.7188C8.44338 67.9905 8.6994 68.3339 8.86793 68.722C9.03645 69.11 9.11286 69.5321 9.09113 69.9548C9.12051 70.6141 8.91428 71.2621 8.50965 71.7822C8.12118 72.257 7.58433 72.5862 6.98617 72.7163C7.66426 72.8405 8.27633 73.2026 8.71317 73.738ZM2.7181 71.934H4.85795C5.34428 71.9701 5.8273 71.8291 6.21861 71.537C6.37928 71.3908 6.50428 71.2094 6.58394 71.0069C6.6636 70.8045 6.69578 70.5863 6.67798 70.3693C6.69309 70.1531 6.66024 69.9363 6.58181 69.7344C6.50338 69.5325 6.38132 69.3505 6.22443 69.2017C5.8214 68.9013 5.32338 68.7581 4.82306 68.7989H2.7181V71.934ZM6.42795 76.5169C6.59969 76.3673 6.73469 76.1799 6.82244 75.9692C6.91019 75.7586 6.94831 75.5305 6.93384 75.3026C6.94693 75.0721 6.90707 74.8416 6.81734 74.6291C6.72761 74.4165 6.5904 74.2274 6.41632 74.0766C5.99766 73.765 5.48277 73.6119 4.96262 73.6446H2.7181V76.9315H4.99169C5.50344 76.9611 6.01 76.8149 6.42795 76.5169Z" fill="#AFB1B8"/>
<path d="M18.9469 78.8756L16.1616 74.2051H15.1149V78.8756H12.7192V66.9249H17.2548C18.398 66.8447 19.5283 67.2084 20.4122 67.9407C21.0463 68.5893 21.4286 69.444 21.4905 70.3507C21.5523 71.2573 21.2895 72.1563 20.7495 72.8857C20.1899 73.5293 19.4255 73.9584 18.5864 74.1L21.5519 78.8756H18.9469ZM15.1149 72.5762H17.0745C18.4352 72.5762 19.1155 71.973 19.1155 70.7664C19.1294 70.52 19.0921 70.2734 19.006 70.0423C18.9199 69.8111 18.7869 69.6004 18.6155 69.4236C18.1855 69.0646 17.6317 68.8904 17.0745 68.939H15.0917L15.1149 72.5762Z" fill="#AFB1B8"/>
<path d="M32.0417 76.4702H27.2677L26.4246 78.8756H23.9126L28.297 67.0591H31.0125L35.3794 78.8756H32.8674L32.0417 76.4702ZM31.4021 74.6604L29.6576 69.6162L27.9132 74.6604H31.4021Z" fill="#AFB1B8"/>
<path d="M48.434 78.8756H46.0557L40.7235 70.7488V78.8756H38.3511V66.9248H40.7235L46.0557 75.0983V66.9248H48.434V78.8756Z" fill="#AFB1B8"/>
<path d="M62.006 76.015C61.5143 76.9173 60.765 77.6513 59.8545 78.1226C58.8193 78.6476 57.6704 78.9064 56.511 78.8758H52.2778V66.925H56.511C57.6684 66.8946 58.8158 67.1471 59.8545 67.6606C60.7649 68.1212 61.5149 68.8479 62.006 69.7448C62.4955 70.7168 62.7506 71.7907 62.7506 72.8799C62.7506 73.9691 62.4955 75.043 62.006 76.015ZM59.2847 75.729C59.9634 74.935 60.3366 73.9233 60.3366 72.877C60.3366 71.8307 59.9634 70.819 59.2847 70.025C58.4643 69.3059 57.3944 68.9409 56.3075 69.0092H54.6561V76.7448H56.3075C57.3944 76.8131 58.4643 76.4481 59.2847 75.729Z" fill="#AFB1B8"/>
<path d="M33.5308 0.451126C33.5308 0.451126 64.2271 12.0867 63.5759 28.924V57.4027C63.5759 57.4027 32.9028 45.7614 33.5424 28.924L33.5308 0.451126Z" fill="#AFB1B8"/>
<path d="M90.9224 50.7355C96.7197 46.7299 103.425 44.2488 110.425 43.5195V34.6046C102.36 37.7257 95.5175 43.3849 90.9224 50.7355Z" fill="#AFB1B8"/>
<path d="M87.4398 53.4211C92.1848 43.8282 100.411 36.4257 110.426 32.7363V7.04826C110.426 7.04826 66.71 23.6229 67.6346 47.6004V88.1467C67.6346 88.1467 69.5825 87.4052 72.6469 86.0157C72.6469 84.7196 72.6469 83.4119 72.7865 82.0983C73.6912 70.9668 78.962 60.6517 87.4398 53.4211Z" fill="#AFB1B8"/>
<path d="M83.2826 68.4836C83.5122 65.6716 84.0246 62.8901 84.8119 60.1816C79.533 66.426 76.3362 74.1745 75.671 82.3376C75.607 83.1082 75.5721 83.8789 75.5547 84.6729C78.0376 83.476 80.9276 81.9815 83.9629 80.2242C83.1883 76.3621 82.9593 72.4098 83.2826 68.4836Z" fill="#AFB1B8"/>
<path d="M85.0212 68.6296C84.7302 72.1817 84.912 75.757 85.562 79.2609C97.5056 72.0858 110.926 60.999 110.409 47.6004V46.4327C101.875 47.3914 93.8917 51.1367 87.6844 57.0933C86.231 60.7846 85.3334 64.6727 85.0212 68.6296Z" fill="#AFB1B8"/>
</g>
<defs>
<clipPath id="clip0">
<rect width="110.086" height="87.6956" fill="white" transform="translate(0.339844 0.451111)"/>
</clipPath>
</defs>
</svg>

<svg width="111" height="89" fill="none" xmlns="http://www.w3.org/2000/svg"><g clip-path="url(#clip0)" fill="#AFB1B8"><path d="M8.713 73.738c.43.533.658 1.2.646 1.886a2.994 2.994 0 01-1 2.382 4.326 4.326 0 01-2.908.87H.34V66.925h5.006a4.261 4.261 0 012.774.794 2.731 2.731 0 01.971 2.236c.03.66-.177 1.307-.581 1.827a2.714 2.714 0 01-1.524.934c.678.125 1.29.487 1.727 1.022zm-5.995-1.804h2.14c.486.036.97-.105 1.36-.397a1.419 1.419 0 00.46-1.168 1.47 1.47 0 00-.454-1.167 2.064 2.064 0 00-1.4-.403H2.717v3.135zm3.71 4.583a1.482 1.482 0 00.506-1.214 1.511 1.511 0 00-.518-1.226 2.203 2.203 0 00-1.453-.432H2.718v3.287h2.274a2.25 2.25 0 001.436-.415zM18.947 78.876l-2.785-4.67h-1.047v4.67h-2.396V66.925h4.536a4.46 4.46 0 013.157 1.016 3.82 3.82 0 01.338 4.945 3.678 3.678 0 01-2.164 1.214l2.966 4.776h-2.605zm-3.832-6.3h1.96c1.36 0 2.04-.603 2.04-1.81a1.786 1.786 0 00-.5-1.342 2.117 2.117 0 00-1.54-.485h-1.983l.023 3.637zM32.042 76.47h-4.774l-.843 2.406h-2.512l4.384-11.817h2.715l4.367 11.817h-2.512l-.825-2.406zm-.64-1.81l-1.744-5.044-1.745 5.044h3.49zM48.434 78.876h-2.378l-5.332-8.127v8.127H38.35V66.925h2.373l5.332 8.173v-8.173h2.378v11.95zM62.006 76.015a5.144 5.144 0 01-2.151 2.108 6.984 6.984 0 01-3.344.753h-4.233V66.925h4.233a7.122 7.122 0 013.343.736c.91.46 1.66 1.187 2.152 2.084a6.97 6.97 0 010 6.27zm-2.721-.286a4.39 4.39 0 000-5.704 4.124 4.124 0 00-2.977-1.016h-1.652v7.736h1.651a4.124 4.124 0 002.978-1.016zM33.53.451s30.697 11.636 30.046 28.473v28.479S32.903 45.76 33.542 28.924L33.531.451zM90.922 50.736a41.955 41.955 0 0119.503-7.216v-8.915a40.055 40.055 0 00-19.503 16.13z"/><path d="M87.44 53.421a41.762 41.762 0 0122.986-20.685V7.048S66.71 23.623 67.635 47.6v40.547s1.947-.742 5.012-2.131c0-1.296 0-2.604.14-3.918A42.179 42.179 0 0187.44 53.421z"/><path d="M83.283 68.484c.23-2.812.742-5.594 1.529-8.302a39.258 39.258 0 00-9.141 22.156c-.064.77-.099 1.54-.116 2.335a126.868 126.868 0 008.408-4.449 42.125 42.125 0 01-.68-11.74zM85.021 68.63a40.265 40.265 0 00.541 10.63C97.506 72.087 110.926 61 110.409 47.6v-1.167a39.13 39.13 0 00-22.725 10.66 40.099 40.099 0 00-2.663 11.537z"/></g><defs><clipPath id="clip0"><path fill="#fff" transform="translate(.34 .451)" d="M0 0h110.086v87.696H0z"/></clipPath></defs></svg>
